X: 8
T: Elizabeth Kelly's Delight
R: slip jig
M: 9/8
L: 1/8
K: Dmin
|: d3 dce dcA | ded dcA GAc | d3 dce dcA | cd=B c2A GAc :|
|: f3 edc dcA | fed ecA GAc | f3 edc dcA | cd=B c2A GAc :|


Tune 953	Setting 14148

